packages/ndla-icons/svg/common/NotionFlip.svg

<svg width="41" height="54" viewBox="0 0 41 54" fill="none" xmlns="http://www.w3.org/2000/svg" data-license="CC-BY 4.0" data-source="Labs AS">
  <path d="M36.5 47.085L32.5 52.485V1.51501L36.5 6.91501V47.085Z" fill="#638B98" stroke="#638B98"/>
  <path d="M1 27C1 15.9543 9.95431 7 21 7H37V47H21C9.95431 47 1 38.0457 1 27Z" fill="#DEF1ED"/>
  <path d="M2 27C2 16.5066 10.5066 8 21 8H36V46H21C10.5066 46 2 37.4934 2 27Z" stroke="#638B98" stroke-width="2"/>
  <path fill-rule="evenodd" clip-rule="evenodd" d="M23.8682 28.0598C24.2622 25.5195 27.0859 25.344 27.5445 23.8441C27.7891 23.0441 27.4522 22.3579 26.6022 22.098C25.9188 21.8891 25.2669 22.0543 24.6206 22.4398L23.8545 21.1304C24.8311 20.4995 25.9978 20.2002 27.2145 20.5721C29.0144 21.1224 30.0073 22.4648 29.4519 24.2814C28.8048 26.3981 25.9755 26.3532 25.5516 28.5745L23.8682 28.0598ZM22.7256 30.4259C22.9549 29.6759 23.6564 29.289 24.3564 29.503C25.0564 29.717 25.4382 30.4352 25.2089 31.1851C24.9796 31.9351 24.2615 32.317 23.5615 32.103C22.8615 31.889 22.4963 31.1759 22.7256 30.4259Z" fill="#638B98"/>
  <path fill-rule="evenodd" clip-rule="evenodd" d="M16.9054 31.0545C15.7266 28.0129 18.7184 26.0285 18.2706 24.0891C18.0318 23.0548 17.2262 22.5145 16.1272 22.7682C15.2437 22.9722 14.6321 23.5673 14.1664 24.4012L12.4938 23.4482C13.1667 22.1353 14.259 21.0661 15.832 20.7029C18.1592 20.1656 20.102 21.0108 20.6443 23.3596C21.2761 26.0962 18.1384 27.842 19.0818 30.5521L16.9054 31.0545ZM17.151 34.3796C16.9272 33.41 17.4525 32.5397 18.3576 32.3307C19.2626 32.1218 20.1379 32.6687 20.3617 33.6384C20.5856 34.6081 20.0387 35.4833 19.1337 35.6923C18.2286 35.9012 17.3749 35.3493 17.151 34.3796Z" fill="#638B98"/>
</svg>

<svg xmlns="http://www.w3.org/2000/svg" fill="none" data-license="CC-BY 4.0" data-source="Labs AS" viewBox="0 0 41 54">
  <path fill="#638B98" stroke="#638B98" d="m36.5 47-4 5.5v-51l4 5.4v40.2Z"/>
  <path fill="#DEF1ED" d="M1 27C1 16 10 7 21 7h16v40H21C10 47 1 38 1 27Z"/>
  <path stroke="#638B98" stroke-width="2" d="M2 27A19 19 0 0 1 21 8h15v38H21A19 19 0 0 1 2 27Z"/>
  <path fill="#638B98" fill-rule="evenodd" d="M23.9 28c.4-2.5 3.2-2.7 3.6-4.2.3-.8 0-1.4-.9-1.7-.7-.2-1.3 0-2 .3l-.7-1.3a4 4 0 0 1 3.3-.5c1.8.5 2.8 1.9 2.3 3.7-.7 2.1-3.5 2-4 4.3L24 28Zm-1.2 2.4c.3-.7 1-1.1 1.7-.9.7.2 1 1 .8 1.7-.2.7-1 1.1-1.6.9-.7-.2-1.1-1-.9-1.7ZM17 31c-1.3-3 1.7-5 1.3-7-.3-1-1-1.5-2.2-1.2-.9.2-1.5.8-2 1.6l-1.6-1a5 5 0 0 1 3.3-2.7c2.4-.5 4.3.3 4.8 2.7.7 2.7-2.5 4.4-1.5 7.2l-2.2.5Zm.2 3.4c-.3-1 .3-1.9 1.2-2 .9-.3 1.7.3 2 1.2.2 1-.4 1.9-1.3 2-.9.3-1.7-.3-2-1.2Z" clip-rule="evenodd"/>
</svg>
